app/assets/images/heroicons/mini/chevron-up-down.svg

<svg width="20" height="20" viewBox="0 0 20 20" fill="none" xmlns="http://www.w3.org/2000/svg">
<path fill-rule="evenodd" clip-rule="evenodd" d="M10.5303 3.46967C10.2374 3.17678 9.76256 3.17678 9.46967 3.46967L6.21967 6.71967C5.92678 7.01256 5.92678 7.48744 6.21967 7.78033C6.51256 8.07322 6.98744 8.07322 7.28033 7.78033L10 5.06066L12.7197 7.78033C13.0126 8.07322 13.4874 8.07322 13.7803 7.78033C14.0732 7.48744 14.0732 7.01256 13.7803 6.71967L10.5303 3.46967ZM6.21967 13.2803L9.46967 16.5303C9.76256 16.8232 10.2374 16.8232 10.5303 16.5303L13.7803 13.2803C14.0732 12.9874 14.0732 12.5126 13.7803 12.2197C13.4874 11.9268 13.0126 11.9268 12.7197 12.2197L10 14.9393L7.28033 12.2197C6.98744 11.9268 6.51256 11.9268 6.21967 12.2197C5.92678 12.5126 5.92678 12.9874 6.21967 13.2803Z" fill="#0F172A"/>
</svg>

<svg xmlns="http://www.w3.org/2000/svg" viewBox="0 0 20 20" fill="currentColor" aria-hidden="true" data-slot="icon">
  <path fill-rule="evenodd" d="M10.53 3.47a.75.75 0 0 0-1.06 0L6.22 6.72a.75.75 0 0 0 1.06 1.06L10 5.06l2.72 2.72a.75.75 0 1 0 1.06-1.06l-3.25-3.25Zm-4.31 9.81 3.25 3.25a.75.75 0 0 0 1.06 0l3.25-3.25a.75.75 0 1 0-1.06-1.06L10 14.94l-2.72-2.72a.75.75 0 0 0-1.06 1.06Z" clip-rule="evenodd"/>
</svg>
